;FLAVOR:Marlin
;TIME:12540
;Filament used: 8.85815m
;Layer height: 0.2
;MINX:59.001
;MINY:46.599
;MINZ:0.2
;MAXX:161
;MAXY:167.145
;MAXZ:20
;TARGET_MACHINE.NAME:Creality Ender-3 Pro
;Generated with Cura_SteamEngine 5.10.0
; Ender 3 Custom Start G-code
G92 E0 ; Reset Extruder
G28 ; Home all axes
G1 Z5.0 F3000 ; Move Z Axis up a bit during heating to not damage bed
M104 S175 ; Start heating up the nozzle most of the way
M190 S60 ; Start heating the bed, wait until target temperature reached
M109 S200 ; Finish heating the nozzle
G1 Z2.0 F3000 ; Move Z Axis up little to prevent scratching of Heat Bed
G1 X0.1 Y20 Z0.3 F5000.0 ; Move to start position
G1 X0.1 Y200.0 Z0.3 F1500.0 E15 ; Draw the first line
G1 X0.4 Y200.0 Z0.3 F5000.0 ; Move to side a little
G1 X0.4 Y20 Z0.3 F1500.0 E30 ; Draw the second line
G92 E0 ; Reset Extruder
G1 Z2.0 F3000 ; Move Z Axis up little to prevent scratching of Heat Bed
G1 X5 Y20 Z0.3 F5000.0 ; Move over to prevent blob squish
M82 ;absolute extrusion mode
G92 E0
G92 E0
G1 F1500 E-6.5
;LAYER_COUNT:100
;LAYER:0
M107
G0 F6000 X61.704 Y51.343 Z0.2
;TYPE:SKIRT
G1 F1500 E0
G1 F1200 X62.358 Y50.59 E0.03317
G1 X62.992 Y49.947 E0.06321
G1 X63.988 Y49.122 E0.10622
G1 X64.273 Y48.914 E0.11796
G1 X65.091 Y48.376 E0.15052
G1 X66.019 Y47.881 E0.1855
G1 X66.379 Y47.712 E0.19873
G1 X67.278 Y47.339 E0.2311
G1 X68.202 Y47.046 E0.26334
G1 X69.068 Y46.848 E0.29289
G1 X70.032 Y46.693 E0.32536
G1 X71.09 Y46.62 E0.36064
G1 X72.281 Y46.599 E0.40026
G1 X148.136 Y46.6 E2.9232
G1 X148.89 Y46.614 E2.94829
G1 X149.866 Y46.678 E2.98082
G1 X150.973 Y46.855 E3.0181
G1 X151.301 Y46.926 E3.02927
G1 X152.175 Y47.155 E3.05932
G1 X153.46 Y47.636 E3.10495
G1 X153.77 Y47.776 E3.11627
G1 X154.644 Y48.218 E3.14884
G1 X155.642 Y48.846 E3.18806
G1 X156.585 Y49.577 E3.22774
G1 X157.465 Y50.415 E3.26816
G1 X157.76 Y50.731 E3.28254
G1 X158.404 Y51.487 E3.31557
G1 X158.962 Y52.274 E3.34766
G1 X159.37 Y52.953 E3.374
G1 X159.831 Y53.845 E3.4074
G1 X160.229 Y54.832 E3.4428
G1 X160.342 Y55.161 E3.45437
G1 X160.621 Y56.107 E3.48717
G1 X160.858 Y57.375 E3.53007
G1 X160.911 Y57.809 E3.54462
G1 X160.99 Y58.94 E3.58233
G1 X161 Y59.584 E3.60375
G1 X160.999 Y105.542 E5.13232
G1 X160.987 Y106.273 E5.15663
G1 X160.935 Y107.183 E5.18695
G1 X160.898 Y107.54 E5.19889
G1 X160.789 Y108.326 E5.22528
G1 X160.529 Y109.793 E5.27483
G1 X160.131 Y112.291 E5.35896
G1 X159.8 Y114.815 E5.44363
G1 X159.542 Y117.333 E5.52782
G1 X159.362 Y119.781 E5.60946
G1 X159.246 Y122.346 E5.69486
G1 X159.2 Y125.223 E5.79056
G1 X159.199 Y154.082 E6.75042
G1 X159.187 Y154.831 E6.77533
G1 X159.137 Y155.727 E6.80518
G1 X159.107 Y156.025 E6.81514
G1 X158.971 Y156.957 E6.84647
G1 X158.688 Y158.113 E6.88605
G1 X158.58 Y158.465 E6.8983
G1 X158.257 Y159.371 E6.93029
G1 X157.701 Y160.543 E6.97343
G1 X157.523 Y160.865 E6.98567
G1 X157.014 Y161.696 E7.01808
G1 X156.478 Y162.422 E7.0481
G1 X155.956 Y163.031 E7.07477
G1 X155.269 Y163.736 E7.10752
G1 X154.34 Y164.517 E7.14788
G1 X154.027 Y164.75 E7.16086
G1 X153.246 Y165.281 E7.19227
G1 X152.088 Y165.906 E7.23604
G1 X151.776 Y166.05 E7.24747
G1 X150.904 Y166.407 E7.27881
G1 X149.714 Y166.762 E7.32011
G1 X149.409 Y166.834 E7.33053
G1 X148.438 Y167.015 E7.36339
G1 X147.164 Y167.12 E7.4059
G1 X146.034 Y167.143 E7.44349
G1 X73.692 Y167.145 E9.8496
G1 X73.044 Y167.135 E9.87115
G1 X72.057 Y167.075 E9.90404
G1 X71.139 Y166.939 E9.93491
G1 X70.726 Y166.858 E9.94891
G1 X69.808 Y166.637 E9.98031
G1 X68.589 Y166.21 E10.02327
G1 X68.304 Y166.09 E10.03356
G1 X67.451 Y165.684 E10.06498
G1 X66.271 Y164.964 E10.11095
G1 X65.993 Y164.767 E10.12229
G1 X65.246 Y164.191 E10.15366
G1 X64.313 Y163.307 E10.19641
G1 X64.033 Y163.008 E10.21003
G1 X63.445 Y162.323 E10.24006
G1 X62.842 Y161.478 E10.27459
G1 X62.396 Y160.732 E10.30349
G1 X61.967 Y159.896 E10.33475
G1 X61.57 Y158.912 E10.37004
G1 X61.458 Y158.585 E10.38153
G1 X61.179 Y157.638 E10.41437
G1 X60.942 Y156.367 E10.45737
G1 X60.889 Y155.932 E10.47195
G1 X60.809 Y154.79 E10.51002
G1 X60.801 Y154.286 E10.52679
G1 X60.8 Y125.116 E11.49699
G1 X60.763 Y122.546 E11.58247
G1 X60.654 Y120 E11.66723
G1 X60.479 Y117.52 E11.74992
G1 X60.234 Y115.053 E11.83238
G1 X59.906 Y112.49 E11.91832
G1 X59.518 Y110.025 E12.00132
G1 X59.246 Y108.502 E12.05277
G1 X59.162 Y107.958 E12.07108
G1 X59.091 Y107.386 E12.09025
G1 X59.009 Y106.228 E12.12886
G1 X59.001 Y105.738 E12.14516
G1 X59.001 Y59.596 E13.67985
G1 X59.012 Y58.907 E13.70277
G1 X59.048 Y58.181 E13.72695
G1 X59.079 Y57.828 E13.73873
G1 X59.195 Y56.932 E13.76878
G1 X59.419 Y55.922 E13.80319
G1 X59.605 Y55.306 E13.82459
G1 X59.709 Y54.997 E13.83544
G1 X60.061 Y54.09 E13.8678
G1 X60.476 Y53.244 E13.89914
G1 X60.655 Y52.918 E13.91151
G1 X61.17 Y52.071 E13.94448
G1 X61.704 Y51.343 E13.97451
G0 F6000 X62.027 Y51.58
G1 F1200 X62.643 Y50.871 E14.00574
G1 X63.277 Y50.228 E14.03578
G1 X64.243 Y49.43 E14.07745
G1 X64.493 Y49.248 E14.08774
G1 X65.279 Y48.729 E14.11907
G1 X66.189 Y48.243 E14.15338
G1 X66.533 Y48.081 E14.16603
G1 X67.399 Y47.72 E14.19723
G1 X68.291 Y47.436 E14.22837
G1 X69.132 Y47.243 E14.25707
G1 X70.06 Y47.092 E14.28834
G1 X71.097 Y47.02 E14.32291
G1 X72.281 Y46.999 E14.3623
G1 X148.129 Y47 E16.88501
G1 X148.864 Y47.013 E16.90946
G1 X149.803 Y47.073 E16.94076
G1 X150.889 Y47.246 E16.97733
G1 X151.2 Y47.313 E16.98791
G1 X152.074 Y47.542 E17.01796
G1 X153.296 Y48.001 E17.06138
G1 X153.59 Y48.133 E17.0721
G1 X154.431 Y48.557 E17.10342
G1 X155.429 Y49.185 E17.14264
G1 X156.309 Y49.867 E17.17967
G1 X157.173 Y50.689 E17.21934
G1 X157.456 Y50.991 E17.2331
G1 X158.078 Y51.719 E17.26495
G1 X158.619 Y52.48 E17.29601
G1 X159.027 Y53.159 E17.32235
G1 X159.46 Y53.995 E17.35367
G1 X159.851 Y54.963 E17.38839
G1 X159.959 Y55.275 E17.39937
G1 X160.228 Y56.181 E17.43081
G1 X160.461 Y57.424 E17.47287
G1 X160.512 Y57.837 E17.48671
G1 X160.59 Y58.946 E17.52368
G1 X160.6 Y59.584 E17.54491
G1 X160.599 Y105.536 E19.07328
G1 X160.588 Y106.25 E19.09703
G1 X160.537 Y107.142 E19.12674
G1 X160.502 Y107.485 E19.13821
G1 X160.395 Y108.256 E19.1641
G1 X160.135 Y109.723 E19.21365
G1 X159.734 Y112.239 E19.29839
G1 X159.403 Y114.763 E19.38306
G1 X159.144 Y117.292 E19.46761
G1 X158.962 Y119.763 E19.55002
G1 X158.846 Y122.328 E19.63542
G1 X158.8 Y125.217 E19.73152
G1 X158.799 Y154.076 E20.69138
G1 X158.788 Y154.809 E20.71576
G1 X158.739 Y155.687 E20.74501
G1 X158.711 Y155.968 E20.7544
G1 X158.582 Y156.862 E20.78444
G1 X158.305 Y157.996 E20.82327
G1 X158.203 Y158.331 E20.83492
G1 X157.88 Y159.237 E20.86691
G1 X157.351 Y160.35 E20.90789
G1 X157.182 Y160.656 E20.91952
G1 X156.692 Y161.458 E20.95078
G1 X156.156 Y162.184 E20.9808
G1 X155.669 Y162.752 E21.00568
G1 X155.011 Y163.43 E21.0371
G1 X154.101 Y164.196 E21.07667
G1 X153.802 Y164.419 E21.08907
G1 X153.021 Y164.95 E21.12048
G1 X151.92 Y165.543 E21.16208
G1 X151.624 Y165.68 E21.17293
G1 X150.789 Y166.024 E21.20296
G1 X149.622 Y166.373 E21.24348
G1 X149.335 Y166.441 E21.25329
G1 X148.405 Y166.616 E21.28476
G1 X147.155 Y166.72 E21.32648
G1 X146.03 Y166.744 E21.36391
G1 X73.698 Y166.745 E23.76968
G1 X73.068 Y166.736 E23.79063
G1 X72.115 Y166.679 E23.82239
G1 X71.215 Y166.546 E23.85265
G1 X70.819 Y166.469 E23.86606
G1 X69.94 Y166.259 E23.89612
G1 X68.744 Y165.841 E23.93826
G1 X68.475 Y165.728 E23.94797
G1 X67.659 Y165.342 E23.97799
G1 X66.502 Y164.637 E24.02305
G1 X66.237 Y164.45 E24.03384
G1 X65.521 Y163.9 E24.06387
G1 X64.605 Y163.033 E24.10582
G1 X64.337 Y162.747 E24.11885
G1 X63.749 Y162.062 E24.14888
G1 X63.185 Y161.272 E24.18116
G1 X62.752 Y160.549 E24.20919
G1 X62.338 Y159.746 E24.23924
G1 X61.948 Y158.781 E24.27386
G1 X61.841 Y158.471 E24.28477
G1 X61.572 Y157.565 E24.3162
G1 X61.339 Y156.318 E24.3584
G1 X61.288 Y155.904 E24.37227
G1 X61.209 Y154.784 E24.40961
G1 X61.201 Y154.286 E24.42618
G1 X61.2 Y125.116 E25.39638
G1 X61.163 Y122.54 E25.48206
G1 X61.054 Y119.983 E25.56719
G1 X60.878 Y117.492 E25.65024
G1 X60.631 Y115.002 E25.73347
G1 X60.303 Y112.439 E25.81941
G1 X59.912 Y109.954 E25.90308
G1 X59.641 Y108.441 E25.9542
G1 X59.559 Y107.908 E25.97214
G1 X59.49 Y107.358 E25.99057
G1 X59.409 Y106.221 E26.02849
G1 X59.401 Y105.731 E26.04479
G1 X59.401 Y59.603 E27.57901
G1 X59.412 Y58.927 E27.6015
G1 X59.448 Y58.201 E27.62567
G1 X59.476 Y57.879 E27.63642
G1 X59.592 Y56.983 E27.66647
G1 X59.802 Y56.037 E27.6987
G1 X59.984 Y55.433 E27.71968
G1 X60.082 Y55.141 E27.72993
G1 X60.42 Y54.266 E27.76113
G1 X60.827 Y53.437 E27.79184
G1 X61.006 Y53.111 E27.80421
G1 X61.493 Y52.308 E27.83545
G1 X62.027 Y51.58 E27.86548
G0 F6000 X62.35 Y51.817
G1 F1200 X62.928 Y51.152 E27.89478
G1 X63.562 Y50.509 E27.92482
G1 X64.497 Y49.739 E27.9651
G1 X64.714 Y49.581 E27.97403
G1 X65.467 Y49.082 E28.00408
G1 X66.36 Y48.605 E28.03775
G1 X66.688 Y48.45 E28.04982
G1 X67.521 Y48.101 E28.07985
G1 X68.381 Y47.826 E28.10989
G1 X69.197 Y47.638 E28.13774
G1 X70.088 Y47.491 E28.16777
G1 X71.104 Y47.42 E28.20165
G1 X72.281 Y47.399 E28.2408
G1 X148.122 Y47.4 E30.76328
G1 X148.839 Y47.412 E30.78713
G1 X149.74 Y47.468 E30.81716
G1 X150.805 Y47.637 E30.85302
G1 X151.099 Y47.7 E30.86302
G1 X151.973 Y47.929 E30.89307
G1 X153.132 Y48.366 E30.93427
G1 X153.411 Y48.491 E30.94444
G1 X154.218 Y48.896 E30.97447
G1 X155.216 Y49.524 E31.01369
G1 X156.033 Y50.157 E31.04807
G1 X156.881 Y50.963 E31.08698
G1 X157.164 Y51.265 E31.10074
G1 X157.752 Y51.951 E31.13079
G1 X158.276 Y52.686 E31.16082
G1 X158.672 Y53.344 E31.18636
G1 X159.089 Y54.145 E31.2164
G1 X159.473 Y55.094 E31.25044
G1 X159.576 Y55.39 E31.26087
G1 X159.835 Y56.255 E31.2909
G1 X160.064 Y57.474 E31.33215
G1 X160.113 Y57.865 E31.34526
G1 X160.19 Y58.952 E31.38151
G1 X160.2 Y59.584 E31.40253
G1 X160.199 Y105.53 E32.9307
G1 X160.189 Y106.227 E32.95388
G1 X160.139 Y107.102 E32.98303
G1 X160.106 Y107.43 E32.994
G1 X160.001 Y108.186 E33.01938
G1 X159.741 Y109.653 E33.06894
G1 X159.337 Y112.187 E33.15428
G1 X159.006 Y114.711 E33.23895
G1 X158.746 Y117.251 E33.32387
G1 X158.562 Y119.745 E33.40705
G1 X158.446 Y122.31 E33.49245
G1 X158.4 Y125.211 E33.58895
G1 X158.399 Y154.07 E34.5488
G1 X158.389 Y154.787 E34.57265
G1 X158.341 Y155.648 E34.60133
G1 X158.315 Y155.911 E34.61012
G1 X158.186 Y156.805 E34.64017
G1 X157.922 Y157.879 E34.67695
G1 X157.82 Y158.214 E34.6886
G1 X157.519 Y159.065 E34.71862
G1 X157 Y160.157 E34.75883
G1 X156.84 Y160.448 E34.76988
G1 X156.37 Y161.22 E34.79994
G1 X155.834 Y161.946 E34.82995
G1 X155.381 Y162.474 E34.85309
G1 X154.753 Y163.124 E34.88315
G1 X153.861 Y163.876 E34.92196
G1 X153.577 Y164.089 E34.93377
G1 X152.831 Y164.598 E34.9638
G1 X151.752 Y165.18 E35.00458
G1 X151.472 Y165.31 E35.01485
G1 X150.637 Y165.654 E35.04488
G1 X149.53 Y165.984 E35.0833
G1 X149.26 Y166.048 E35.09253
G1 X148.372 Y166.217 E35.1226
G1 X147.122 Y166.321 E35.16432
G1 X146.03 Y166.344 E35.20064
G1 X73.704 Y166.345 E37.60622
G1 X73.074 Y166.336 E37.62717
G1 X72.173 Y166.283 E37.65719
G1 X71.291 Y166.153 E37.68684
G1 X70.912 Y166.08 E37.69968
G1 X70.033 Y165.87 E37.72974
G1 X68.899 Y165.472 E37.76971
G1 X68.646 Y165.366 E37.77884
G1 X67.83 Y164.98 E37.80886
G1 X66.732 Y164.309 E37.85166
G1 X66.481 Y164.133 E37.86186
G1 X65.765 Y163.583 E37.89188
G1 X64.897 Y162.759 E37.93169
G1 X64.641 Y162.486 E37.94414
G1 X64.053 Y161.801 E37.97416
G1 X63.528 Y161.066 E38.00421
G1 X63.108 Y160.366 E38.03136
G1 X62.694 Y159.563 E38.06141
G1 X62.326 Y158.649 E38.09418
G1 X62.224 Y158.356 E38.1045
G1 X61.965 Y157.491 E38.13453
G1 X61.736 Y156.268 E38.17591
G1 X61.687 Y155.876 E38.18905
G1 X61.609 Y154.777 E38.2257
G1 X61.601 Y154.286 E38.24203
G1 X61.6 Y125.116 E39.21223
G1 X61.563 Y122.534 E39.29811
G1 X61.454 Y119.966 E39.3836
G1 X61.277 Y117.464 E39.46703
G1 X61.028 Y114.951 E39.55102
G1 X60.7 Y112.388 E39.63696
G1 X60.306 Y109.883 E39.7213
G1 X60.036 Y108.381 E39.77206
G1 X59.956 Y107.858 E39.78966
G1 X59.889 Y107.329 E39.80739
G1 X59.809 Y106.214 E39.84457
G1 X59.801 Y105.724 E39.86087
G1 X59.801 Y59.609 E41.39466
G1 X59.811 Y58.947 E41.41668
G1 X59.847 Y58.235 E41.4404
G1 X59.873 Y57.93 E41.45058
G1 X59.989 Y57.034 E41.48063
G1 X60.185 Y56.152 E41.51068
G1 X60.363 Y55.56 E41.53124
G1 X60.455 Y55.285 E41.54088
G1 X60.779 Y54.442 E41.57092
G1 X61.178 Y53.629 E41.60104
G1 X61.348 Y53.318 E41.61283
G1 X61.816 Y52.545 E41.64289
G1 X62.35 Y51.817 E41.67291
G1 F1500 E35.17291
;MESH:treadmill_controller_case_bottom.stl
G0 F6000 X69.341 Y59.003
G0 X110 Y106.98
;TYPE:WALL-INNER
G1 F1500 E41.67291
G1 F1200 X148.595 Y106.98 E42.95659
G1 X148.768 Y106.943 E42.96247
G1 X149.098 Y106.757 E42.97507
G1 X149.317 Y106.456 E42.98745
G1 X149.4 Y106.061 E43.00088
G1 X149.4 Y58.959 E44.5675
G1 X149.224 Y58.563 E44.58191
G1 X149.1 Y58.426 E44.58806
G1 X148.77 Y58.233 E44.60077
G1 X148.596 Y58.196 E44.60669
G1 X71.402 Y58.196 E47.17417
G1 X71.235 Y58.233 E47.17986
G1 X70.898 Y58.423 E47.19273
G1 X70.681 Y58.721 E47.20499
G1 X70.6 Y59.12 E47.21853
G1 X70.6 Y106.061 E48.77979
G1 X70.68 Y106.459 E48.7933
G1 X70.895 Y106.751 E48.80536
G1 X71.226 Y106.945 E48.81812
G1 X71.397 Y106.98 E48.82392
G1 X110 Y106.98 E50.10786
G0 F6000 X110 Y107.38
;TYPE:WALL-OUTER
G1 F1200 X148.638 Y107.38 E51.39297
G1 X148.893 Y107.325 E51.40165
G1 X149.152 Y107.209 E51.41108
G1 X149.366 Y107.057 E51.41981
G1 X149.549 Y106.853 E51.42893
G1 X149.684 Y106.621 E51.43786
G1 X149.771 Y106.357 E51.4471
G1 X149.8 Y106.081 E51.45633
G1 X149.8 Y59.099 E53.01896
G1 X149.771 Y58.823 E53.02819
G1 X149.684 Y58.559 E53.03744
G1 X149.549 Y58.327 E53.04636
G1 X149.369 Y58.126 E53.05534
G1 X149.147 Y57.966 E53.06444
G1 X148.896 Y57.851 E53.07362
G1 X148.638 Y57.796 E53.0824
G1 X71.358 Y57.796 E55.65274
G1 X71.108 Y57.851 E55.66125
G1 X70.845 Y57.971 E55.67087
G1 X70.63 Y58.123 E55.67963
G1 X70.447 Y58.327 E55.68874
G1 X70.313 Y58.558 E55.69762
G1 X70.229 Y58.821 E55.70681
G1 X70.2 Y59.099 E55.7161
G1 X70.2 Y106.081 E57.27873
G1 X70.229 Y106.359 E57.28803
G1 X70.312 Y106.622 E57.2972
G1 X70.447 Y106.852 E57.30607
G1 X70.627 Y107.05 E57.31497
G1 X70.85 Y107.214 E57.32418
G1 X71.102 Y107.328 E57.33338
G1 X71.357 Y107.38 E57.34203
G1 X110 Y107.38 E58.6273
G0 F6000 X110 Y106.62
;TYPE:SKIN
G1 F1200 X71.446 Y106.62 E59.90961
G1 X71.222 Y106.544 E59.91748
G1 X71.012 Y106.309 E59.92796
G1 X70.96 Y106.033 E59.93731
G1 X70.96 Y59.147 E61.49674
G1 X71.012 Y58.866 E61.50624
G1 X71.146 Y58.685 E61.51373
G1 X71.45 Y58.556 E61.52472
G1 X148.612 Y58.556 E64.09114
G1 X148.854 Y58.696 E64.10044
G1 X148.981 Y58.871 E64.10763
G1 X149.04 Y59.149 E64.11708
G1 X149.04 Y106.027 E65.67625
G1 X148.981 Y106.304 E65.68567
G1 X148.852 Y106.482 E65.69298
G1 X148.553 Y106.62 E65.70393
G1 X110 Y106.62 E66.98621
G1 F1500 E60.48621
G0 F6000 X110 Y106.88
G0 X71.913 Y106.88
G0 X71.913 Y106.42
G1 F1500 E66.98621
G1 F1200 X71.16 Y105.667 E67.02163
G0 F6000 X71.16 Y105.102
G1 F1200 X72.479 Y106.42 E67.08365
G0 F6000 X73.045 Y106.42
G1 F1200 X71.16 Y104.536 E67.17229
G0 F6000 X71.16 Y103.97
G1 F1200 X73.611 Y106.42 E67.28755
G0 F6000 X74.176 Y106.42
G1 F1200 X71.16 Y103.404 E67.42942
G0 F6000 X71.16 Y102.839
G1 F1200 X74.742 Y106.42 E67.59788
G0 F6000 X75.308 Y106.42
G1 F1200 X71.16 Y102.273 E67.79296
G0 F6000 X71.16 Y101.707
G1 F1200 X75.873 Y106.42 E68.01465
G0 F6000 X76.439 Y106.42
G1 F1200 X71.16 Y101.142 E68.26293
G0 F6000 X71.16 Y100.576
G1 F1200 X77.005 Y106.42 E68.53784
G0 F6000 X77.57 Y106.42
G1 F1200 X71.16 Y100.01 E68.83935
G0 F6000 X71.16 Y99.445
G1 F1200 X78.136 Y106.42 E69.16745
G0 F6000 X78.702 Y106.42
G1 F1200 X71.16 Y98.879 E69.52218
G0 F6000 X71.16 Y98.313
G1 F1200 X79.267 Y106.42 E69.90351
G0 F6000 X79.833 Y106.42
G1 F1200 X71.16 Y97.748 E70.31144
G0 F6000 X71.16 Y97.182
G1 F1200 X80.399 Y106.42 E70.74599
G0 F6000 X80.964 Y106.42
G1 F1200 X71.16 Y96.616 E71.20714
G0 F6000 X71.16 Y96.051
G1 F1200 X81.53 Y106.42 E71.69489
G0 F6000 X82.096 Y106.42
G1 F1200 X71.16 Y95.485 E72.20926
G0 F6000 X71.16 Y94.919
G1 F1200 X82.661 Y106.42 E72.75023
G0 F6000 X83.227 Y106.42
G1 F1200 X71.16 Y94.354 E73.31781
G0 F6000 X71.16 Y93.788
G1 F1200 X83.793 Y106.42 E73.912
G0 F6000 X84.359 Y106.42
G1 F1200 X71.16 Y93.222 E74.53282
G0 F6000 X71.16 Y92.656
G1 F1200 X84.924 Y106.42 E75.18023
G0 F6000 X85.49 Y106.42
G1 F1200 X71.16 Y92.091 E75.85425
